src/images/qsampler.svg

<?xml version="1.0" encoding="UTF-8" standalone="no"?>
<!-- Created with Inkscape (http://www.inkscape.org/) -->

<svg
   version="1.0"
   width="320"
   height="320"
   viewBox="0.5 25.1 320 320"
   id="svg2478"
   xml:space="preserve"
   inkscape:version="1.1.1 (3bf5ae0d25, 2021-09-20)"
   sodipodi:docname="qsampler-icon-1.svg"
   inkscape:export-filename="qsampler-icon-1.png"
   inkscape:export-xdpi="9.6000004"
   inkscape:export-ydpi="9.6000004"
   xmlns:inkscape="http://www.inkscape.org/namespaces/inkscape"
   xmlns:sodipodi="http://sodipodi.sourceforge.net/DTD/sodipodi-0.dtd"
   xmlns:xlink="http://www.w3.org/1999/xlink"
   xmlns="http://www.w3.org/2000/svg"
   xmlns:svg="http://www.w3.org/2000/svg"
   xmlns:rdf="http://www.w3.org/1999/02/22-rdf-syntax-ns#"
   xmlns:cc="http://creativecommons.org/ns#"
   xmlns:dc="http://purl.org/dc/elements/1.1/"><sodipodi:namedview
     pagecolor="#ffffff"
     bordercolor="#666666"
     borderopacity="1"
     objecttolerance="10"
     gridtolerance="10"
     guidetolerance="10"
     inkscape:pageopacity="0"
     inkscape:pageshadow="2"
     inkscape:window-width="1920"
     inkscape:window-height="1003"
     id="namedview207"
     showgrid="true"
     inkscape:zoom="2.515625"
     inkscape:cx="159.80124"
     inkscape:cy="160"
     inkscape:window-x="0"
     inkscape:window-y="0"
     inkscape:window-maximized="1"
     inkscape:current-layer="svg2478"
     inkscape:pagecheckerboard="0"
     width="32px" /><metadata
     id="metadata54"><rdf:RDF><cc:Work
         rdf:about=""><dc:format>image/svg+xml</dc:format><dc:type
           rdf:resource="http://purl.org/dc/dcmitype/StillImage" /></cc:Work></rdf:RDF></metadata><defs
     id="defs2480"><linearGradient
       id="linearGradient3589"
       inkscape:swatch="solid"><stop
         style="stop-color:#0052ff;stop-opacity:1;"
         offset="0"
         id="stop3587" /></linearGradient><radialGradient
       cx="316.60211"
       cy="410.13586"
       r="291.1347"
       fx="169.89993"
       fy="557.98413"
       id="radialGradient3193"
       xlink:href="#linearGradient485"
       gradientUnits="userSpaceOnUse"
       spreadMethod="pad" /><linearGradient
       id="linearGradient485"><stop
         id="stop486"
         style="stop-color:#0052ff;stop-opacity:1"
         offset="0" /><stop
         id="stop487"
         style="stop-color:#000072;stop-opacity:1"
         offset="1" /></linearGradient><radialGradient
       cx="316.20163"
       cy="410.48181"
       r="293.25412"
       fx="168.43147"
       fy="559.40643"
       id="radialGradient3195"
       xlink:href="#linearGradient485"
       gradientUnits="userSpaceOnUse"
       spreadMethod="pad" /><radialGradient
       cx="231.45271"
       cy="366.20547"
       r="508.57837"
       fx="231.45271"
       fy="366.20547"
       id="radialGradient3197"
       xlink:href="#linearGradient743"
       gradientUnits="userSpaceOnUse"
       gradientTransform="matrix(0.51694652,0,0,0.44645471,-19.568181,-18.428523)" /><linearGradient
       id="linearGradient743"><stop
         id="stop744"
         style="stop-color:#ffd7ff;stop-opacity:1"
         offset="0" /><stop
         id="stop745"
         style="stop-color:#4040df;stop-opacity:0.49803922"
         offset="1" /></linearGradient><linearGradient
       x1="239.45113"
       y1="121.25542"
       x2="239.4511"
       y2="373.43777"
       id="linearGradient3199"
       xlink:href="#linearGradient2267"
       gradientUnits="userSpaceOnUse"
       gradientTransform="matrix(0.71659119,-0.37399585,0.17304636,0.33156417,-95.624536,86.688328)" /><linearGradient
       id="linearGradient2267"><stop
         id="stop2269"
         style="stop-color:#ffffff;stop-opacity:1"
         offset="0" /><stop
         id="stop2271"
         style="stop-color:#ffffff;stop-opacity:0"
         offset="1" /></linearGradient><radialGradient
       cx="990.79266"
       cy="202.91145"
       r="52.038383"
       fx="990.44568"
       fy="200.55925"
       id="radialGradient3060"
       xlink:href="#linearGradient646"
       gradientUnits="userSpaceOnUse"
       gradientTransform="scale(0.98198,1.018351)"
       spreadMethod="pad" /><linearGradient
       id="linearGradient646"><stop
         id="stop647"
         style="stop-color:#ffffff;stop-opacity:0.49803922"
         offset="0" /><stop
         id="stop648"
         style="stop-color:#00007f;stop-opacity:0"
         offset="1" /></linearGradient></defs><g
     transform="matrix(0.95043188,0,0,0.95043188,5.6320432,29.148325)"
     id="g3102"
     style="display:inline"
     inkscape:label="icon"><path
       d="M 321.28664,150.8485 A 153.46644,156.95075 40.812837 1 1 12.809298,187.77283 153.46644,156.95075 40.812837 1 1 321.28664,150.8485 Z"
       id="path6870"
       style="display:inline;fill:#000000;fill-opacity:0.2;fill-rule:evenodd;stroke:#000000;stroke-width:17.8329;stroke-linecap:butt;stroke-linejoin:bevel;stroke-miterlimit:4;stroke-dasharray:none;stroke-opacity:0.2;paint-order:stroke fill markers"
       inkscape:label="path9" /><path
       d="M 321.28664,150.8485 A 153.46644,156.95075 40.812837 1 1 12.809298,187.77283 153.46644,156.95075 40.812837 1 1 321.28664,150.8485 Z"
       id="path1454"
       style="display:inline;fill:#000000;fill-opacity:0.2;fill-rule:evenodd;stroke:#000000;stroke-width:8.91647;stroke-linecap:butt;stroke-linejoin:bevel;stroke-miterlimit:4;stroke-dasharray:none;stroke-opacity:0.2;paint-order:stroke fill markers"
       inkscape:label="path8" /><path
       d="m 707.05579,362.61322 a 335.4404,335.44043 0 1 1 -670.880802,0 335.4404,335.44043 0 1 1 670.880802,0 z"
       id="path1400"
       style="display:inline;fill:#000000;fill-opacity:0.2;fill-rule:evenodd;stroke:#000000;stroke-width:38.5434;stroke-linecap:butt;stroke-linejoin:bevel;stroke-miterlimit:4;stroke-dasharray:none;stroke-opacity:0.2;paint-order:stroke fill markers"
       inkscape:label="path7"
       transform="matrix(0.45980947,-0.05503859,0.0446589,0.46020629,-28.934685,13.970499)" /><path
       d="m 707.05579,362.61322 a 335.4404,335.44043 0 1 1 -670.880802,0 335.4404,335.44043 0 1 1 670.880802,0 z"
       transform="matrix(0.45980947,-0.05503859,0.0446589,0.46020629,-28.934685,13.970499)"
       id="path948"
       style="display:inline;fill:#000000;fill-opacity:0.197232;fill-rule:evenodd;stroke:#000000;stroke-width:19.2717;stroke-linecap:butt;stroke-linejoin:bevel;stroke-miterlimit:4;stroke-dasharray:none;stroke-opacity:0.2;paint-order:stroke fill markers"
       inkscape:label="path6" /><path
       d="m 707.05579,362.61322 a 335.4404,335.44043 0 1 1 -670.880802,0 335.4404,335.44043 0 1 1 670.880802,0 z"
       transform="matrix(0.45980947,-0.05503859,0.0446589,0.46020629,-28.934685,13.970499)"
       id="path650"
       style="display:inline;fill:url(#radialGradient3193);fill-opacity:1;fill-rule:evenodd;stroke:#000000;stroke-width:4.997;stroke-linecap:butt;stroke-linejoin:miter;stroke-dasharray:none;stroke-opacity:1"
       inkscape:label="path5" /><path
       d="m 707.05579,362.61322 a 335.4404,335.44043 0 1 1 -670.880802,0 335.4404,335.44043 0 1 1 670.880802,0 z"
       transform="matrix(0.40396764,-0.04490247,0.0392352,0.37545102,-5.4316151,41.73224)"
       id="path651"
       style="display:inline;fill:url(#radialGradient3195);fill-opacity:1;fill-rule:evenodd;stroke:#0000ff;stroke-width:9.9173;stroke-linecap:butt;stroke-linejoin:miter;stroke-dasharray:none;stroke-opacity:0.1883"
       inkscape:label="path4" /><path
       d="m 185.58264,109.32335 c -13.7325,-3.72577 -118.282566,9.18846 -107.134185,37.84031 12.406093,32.62541 105.882235,39.10302 102.254665,68.95499 -1.2899,10.37756 -33.15488,20.29672 -57.56309,19.24655 C 97.376201,234.2567 77.090049,229.05228 59.16016,208.75748 47.902055,196.01442 43.239058,180.52549 42.036449,162.09579 40.83384,143.66614 48.129962,123.26339 58.322519,108.16042 80.715746,74.978878 108.65453,55.751115 147.42718,50.610494 238.85246,38.928763 273.51461,116.4728 273.20134,114.84945 272.87034,113.13357 236.59438,38.266326 148.07564,45.690236 111.46329,48.760869 85.293424,67.194083 63.92097,89.294549 49.029288,104.7046 37.897769,126.45628 34.789424,148.07648 c -4.537515,31.56026 3.917643,59.39422 25.319833,79.57363 17.943821,16.91867 46.810803,23.13051 77.380893,23.81086 42.93976,0.95569 92.93986,-7.12927 93.34937,-24.93214 9.5e-4,-32.12325 -73.4622,-41.83319 -88.9924,-57.99205 -30.44258,-31.05534 48.15048,-24.5996 62.08572,-19.14243 1.34322,0.18019 -11.33671,-38.26086 -18.3502,-40.071 z"
       id="path652"
       style="font-size:12px;display:inline;fill:url(#radialGradient3197);stroke:#58b8ff;stroke-width:4.15133;stroke-opacity:0.721569"
       inkscape:label="path3" /><path
       d="M 36.695334,136.51371 C 50.596723,161.667 98.15448,142.2852 140.84619,118.86155 183.53834,95.437612 225.38424,67.327901 211.48288,42.174643 197.58155,17.02141 131.35318,18.855748 95.363104,39.123198 53.005242,63.089397 22.794046,111.36052 36.695334,136.51371 Z"
       id="path653"
       style="font-size:12px;display:inline;fill:url(#linearGradient3199);fill-opacity:1;fill-rule:evenodd;stroke-width:5"
       inkscape:label="path2" /><path
       d="m 1043.894,213.02252 a 49.274715,51.099751 0 1 1 -98.54943,0 49.274715,51.099751 0 1 1 98.54943,0 z"
       transform="matrix(1.7116642,0,0,1.4232571,-1571.2435,-154.88305)"
       id="path709"
       style="display:inline;fill:url(#radialGradient3060);fill-opacity:1;fill-rule:evenodd;stroke:none"
       inkscape:label="path1" /></g></svg>

<?xml version="1.0" encoding="UTF-8"?>
<svg width="320" height="320" version="1.0" viewBox=".5 25.1 320 320" xmlns="http://www.w3.org/2000/svg" xmlns:xlink="http://www.w3.org/1999/xlink">
  <defs>
    <radialGradient id="radialGradient3193" cx="316.6" cy="410.14" r="291.13" fx="169.9" fy="557.98" gradientUnits="userSpaceOnUse" xlink:href="#linearGradient485"/>
    <linearGradient id="linearGradient485">
      <stop stop-color="#0052ff" offset="0"/>
      <stop stop-color="#000072" offset="1"/>
    </linearGradient>
    <radialGradient id="radialGradient3195" cx="316.2" cy="410.48" r="293.25" fx="168.43" fy="559.41" gradientUnits="userSpaceOnUse" xlink:href="#linearGradient485"/>
    <radialGradient id="radialGradient3197" cx="231.45" cy="366.21" r="508.58" gradientTransform="matrix(.51695 0 0 .44645 -19.568 -18.429)" gradientUnits="userSpaceOnUse">
      <stop stop-color="#ffd7ff" offset="0"/>
      <stop stop-color="#4040df" stop-opacity=".49804" offset="1"/>
    </radialGradient>
    <linearGradient id="linearGradient3199" x1="239.45" x2="239.45" y1="121.26" y2="373.44" gradientTransform="matrix(.71659 -.374 .17305 .33156 -95.625 86.688)" gradientUnits="userSpaceOnUse">
      <stop stop-color="#fff" offset="0"/>
      <stop stop-color="#fff" stop-opacity="0" offset="1"/>
    </linearGradient>
    <radialGradient id="radialGradient3060" cx="990.79" cy="202.91" r="52.038" fx="990.45" fy="200.56" gradientTransform="scale(.98198 1.0184)" gradientUnits="userSpaceOnUse">
      <stop stop-color="#fff" stop-opacity=".49804" offset="0"/>
      <stop stop-color="#00007f" stop-opacity="0" offset="1"/>
    </radialGradient>
  </defs>
  <g transform="matrix(.95043 0 0 .95043 5.632 29.148)">
    <g fill-rule="evenodd" stroke="#000" stroke-linejoin="bevel" stroke-opacity=".2">
      <g fill-opacity=".2">
        <path d="m321.29 150.85a153.47 156.95 40.813 1 1-308.48 36.924 153.47 156.95 40.813 1 1 308.48-36.924z" stroke-width="17.833" style="paint-order:stroke fill markers"/>
        <path d="m321.29 150.85a153.47 156.95 40.813 1 1-308.48 36.924 153.47 156.95 40.813 1 1 308.48-36.924z" stroke-width="8.9165" style="paint-order:stroke fill markers"/>
        <path transform="matrix(.45981 -.055039 .044659 .46021 -28.935 13.97)" d="m707.06 362.61a335.44 335.44 0 1 1-670.88 0 335.44 335.44 0 1 1 670.88 0z" stroke-width="38.543" style="paint-order:stroke fill markers"/>
      </g>
      <path transform="matrix(.45981 -.055039 .044659 .46021 -28.935 13.97)" d="m707.06 362.61a335.44 335.44 0 1 1-670.88 0 335.44 335.44 0 1 1 670.88 0z" fill-opacity=".19723" stroke-width="19.272" style="paint-order:stroke fill markers"/>
    </g>
    <path transform="matrix(.45981 -.055039 .044659 .46021 -28.935 13.97)" d="m707.06 362.61a335.44 335.44 0 1 1-670.88 0 335.44 335.44 0 1 1 670.88 0z" fill="url(#radialGradient3193)" fill-rule="evenodd" stroke="#000" stroke-width="4.997"/>
    <path transform="matrix(.40397 -.044902 .039235 .37545 -5.4316 41.732)" d="m707.06 362.61a335.44 335.44 0 1 1-670.88 0 335.44 335.44 0 1 1 670.88 0z" fill="url(#radialGradient3195)" fill-rule="evenodd" stroke="#00f" stroke-opacity=".1883" stroke-width="9.9173"/>
    <path d="m185.58 109.32c-13.732-3.7258-118.28 9.1885-107.13 37.84 12.406 32.625 105.88 39.103 102.25 68.955-1.2899 10.378-33.155 20.297-57.563 19.247-25.764-1.1085-46.05-6.3129-63.98-26.608-11.258-12.743-15.921-28.232-17.124-46.662-1.2026-18.43 6.0935-38.832 16.286-53.935 22.393-33.182 50.332-52.409 89.105-57.55 91.425-11.682 126.09 65.862 125.77 64.239-0.331-1.7159-36.607-76.583-125.13-69.159-36.612 3.0706-62.782 21.504-84.155 43.604-14.892 15.41-26.023 37.162-29.132 58.782-4.5375 31.56 3.9176 59.394 25.32 79.574 17.944 16.919 46.811 23.131 77.381 23.811 42.94 0.95569 92.94-7.1293 93.349-24.932 9.5e-4 -32.123-73.462-41.833-88.992-57.992-30.443-31.055 48.15-24.6 62.086-19.142 1.3432 0.18019-11.337-38.261-18.35-40.071z" fill="url(#radialGradient3197)" stroke="#58b8ff" stroke-opacity=".72157" stroke-width="4.1513"/>
    <path d="m36.695 136.51c13.901 25.153 61.459 5.7715 104.15-17.652 42.692-23.424 84.538-51.534 70.637-76.687-13.901-25.153-80.13-23.319-116.12-3.0514-42.358 23.966-72.569 72.237-58.668 97.391z" fill="url(#linearGradient3199)" fill-rule="evenodd" stroke-width="5"/>
    <path transform="matrix(1.7117 0 0 1.4233 -1571.2 -154.88)" d="m1043.9 213.02a49.275 51.1 0 1 1-98.549 0 49.275 51.1 0 1 1 98.549 0z" fill="url(#radialGradient3060)" fill-rule="evenodd"/>
  </g>
</svg>
